X:1
T:Pavilion Waltz
M:3/8
L:1/8
N:"Allegretto"
R:Waltz
B:Thomas Wilson - Companion to the Ball Room (1816, p. 144)
Z:AK/Fiddler's Companion
K:Bb
"Allegretto"B,>CD/E/|D/F/d/F/d/F/|E/F/c/F/c/F/|D/F/B/F/d|
B,>CD/E/|D/F/d/F/d/F/|E/F/c/F/c/A/|B3:|
|:B,>DF/B/|d/c/=B/c/B/c/|F>F/A/c/|c/B/A/B/A/B/|
B,>C/D/E/|D/F/d/F/d/F/|E/F/c/F/c/A/|B3:|
K:Eb
B/A/|G/B/e/B/g/B/|G/B/e/B/g/B/|g/a/g/a/g/a/|f2 B/A/|
G/B/e/B/g/B/|G/B/e/B/g/B/|g/a/g/a/f/d/|e2:|
|:B/c/|B/c/B/c/d/e/|B2 g/b/|b/a/a f/d/|e/gb B/c/|
B/c/B/c/d/e/|B2 g/b/|b/a/a f/d/|e2:|]

